originals/req.svg

<?xml version="1.0" encoding="UTF-8"?>
<svg width="15px" height="17px" viewBox="0 0 15 17" version="1.1" xmlns="http://www.w3.org/2000/svg" xmlns:xlink="http://www.w3.org/1999/xlink">
    <title>req</title>
    <g id="req" stroke="none" stroke-width="1" fill="none" fill-rule="evenodd">
        <path d="M10.0283935,9.46722302 L14.2154179,5.16936181 C14.5296382,4.84705293 14.7058195,4.40886809 14.7048103,3.9521822 L14.711903,0.478351587 C14.7115086,0.300142032 14.644646,0.128897502 14.52513,0 L6.49271037,8.25247777 C6.17738389,8.57430034 6,9.01250516 6,9.46965738 C6,9.9268096 6.17738389,10.3650144 6.49271037,10.686837 L12.1561868,16.5000868 C12.5785131,16.9327689 13.1929405,17.1005906 13.7680203,16.9403349 C14.3431,16.7800793 14.7914637,16.3160931 14.9442171,15.7231553 C15.0969705,15.1302176 14.9309068,14.4984097 14.5085805,14.0657276 L10.0283935,9.46722302 Z" id="Path" fill="#000000" fill-rule="nonzero"></path>
        <path d="M14.5251018,0 L1.78995579,0 C0.760214285,0 0,0.785574326 0,1.85768546 L0,15.2711209 C-0.00569707727,15.7315721 0.172991288,16.174871 0.495634883,16.5003724 C0.818278479,16.8258738 1.25750366,17.0059617 1.71359025,16.9997495 L1.71359025,16.9997495 C2.17006556,17.007657 2.61015093,16.8280745 2.93297523,16.5021638 C3.25579952,16.1762532 3.43368134,15.7319603 3.42584872,15.2711209 L3.42584872,3.30925166 L11.8976502,3.30925166 L15,0.192901653 C14.8744527,0.0658197281 14.7028429,-0.00382874139 14.5251018,0 Z" id="Path" fill="#000000" fill-rule="nonzero"></path>
    </g>
</svg>

<svg xmlns="http://www.w3.org/2000/svg" width="15" height="17" viewBox="0 0 15 17"><path d="m10.028 9.467 4.187-4.298c.315-.322.49-.76.49-1.217l.007-3.474A.7.7 0 0 0 14.525 0L6.493 8.252A1.74 1.74 0 0 0 6 9.47c0 .457.177.895.493 1.217l5.663 5.813c.423.433 1.037.6 1.612.44a1.69 1.69 0 0 0 1.176-1.217 1.75 1.75 0 0 0-.435-1.657z"/><path d="M14.525 0H1.79C.76 0 0 .786 0 1.858V15.27c-.006.46.173.904.496 1.23.322.325.762.505 1.218.499.456.008.896-.172 1.219-.498s.5-.77.493-1.23V3.308h8.472L15 .193A.65.65 0 0 0 14.525 0"/></svg>
